svgs/light/closed-captioning.svg

<svg xmlns="http://www.w3.org/2000/svg" viewBox="0 0 576 512"><!-- Font Awesome Pro 6.0.0-alpha2 by @fontawesome - https://fontawesome.com License - https://fontawesome.com/license (Commercial License) --><path d="M248.939 210.748C255.189 216.998 265.314 216.998 271.564 210.748S277.814 194.373 271.564 188.123C235.314 151.873 172.065 151.873 135.815 188.123C98.393 225.561 98.393 286.436 135.815 323.873C153.94 341.999 178.049 351.998 203.689 351.998S253.439 341.999 271.564 323.873C277.814 317.623 277.814 307.498 271.564 301.248S255.189 294.998 248.939 301.248C224.752 325.436 182.627 325.436 158.44 301.248C133.487 276.311 133.487 235.686 158.44 210.748C182.627 186.561 224.752 186.561 248.939 210.748ZM440.939 210.748C447.189 216.998 457.314 216.998 463.564 210.748S469.814 194.373 463.564 188.123C427.314 151.873 364.065 151.873 327.815 188.123C290.393 225.561 290.393 286.436 327.815 323.873C345.94 341.999 370.049 351.998 395.689 351.998C421.33 351.998 445.439 341.999 463.564 323.873C469.814 317.623 469.814 307.498 463.564 301.248S447.189 294.998 440.939 301.248C416.752 325.436 374.627 325.436 350.44 301.248C325.487 276.311 325.487 235.686 350.44 210.748C374.627 186.561 416.752 186.561 440.939 210.748ZM512 32H64C28.654 32 0 60.652 0 96V416C0 451.346 28.654 480 64 480H512C547.346 480 576 451.346 576 416V96C576 60.652 547.346 32 512 32ZM544 416C544 433.645 529.645 448 512 448H64C46.355 448 32 433.645 32 416V96C32 78.355 46.355 64 64 64H512C529.645 64 544 78.355 544 96V416Z"/></svg>

<svg xmlns="http://www.w3.org/2000/svg" viewBox="0 0 576 512"><!--! Font Awesome Pro 6.3.0 by @fontawesome - https://fontawesome.com License - https://fontawesome.com/license (Commercial License) Copyright 2023 Fonticons, Inc. --><path d="M248.9 210.7c6.25 6.25 16.37 6.25 22.62 0s6.25-16.38 0-22.62c-36.25-36.25-99.5-36.25-135.7 0c-37.42 37.44-37.42 98.31 0 135.8c18.12 18.13 42.23 28.12 67.87 28.12s49.75-9.1 67.87-28.12c6.25-6.25 6.25-16.38 0-22.62s-16.37-6.25-22.62 0c-24.19 24.19-66.31 24.19-90.5 0c-24.95-24.94-24.95-65.56 0-90.5C182.6 186.6 224.8 186.6 248.9 210.7zM440.9 210.7c6.25 6.25 16.37 6.25 22.62 0s6.25-16.38 0-22.62c-36.25-36.25-99.5-36.25-135.7 0c-37.42 37.44-37.42 98.31 0 135.8c18.12 18.13 42.23 28.12 67.87 28.12c25.64 0 49.75-9.1 67.87-28.12c6.25-6.25 6.25-16.38 0-22.62s-16.37-6.25-22.62 0c-24.19 24.19-66.31 24.19-90.5 0c-24.95-24.94-24.95-65.56 0-90.5C374.6 186.6 416.8 186.6 440.9 210.7zM512 32H64C28.65 32 0 60.65 0 96v320c0 35.35 28.65 64 64 64h448c35.35 0 64-28.65 64-64V96C576 60.65 547.3 32 512 32zM544 416c0 17.64-14.36 32-32 32H64c-17.64 0-32-14.36-32-32V96c0-17.64 14.36-32 32-32h448c17.64 0 32 14.36 32 32V416z"/></svg>
